Catalina-light/actions/22/insert-image.svg

<svg xmlns="http://www.w3.org/2000/svg" viewBox="0 0 22 22">
  <defs id="defs3051">
    <style type="text/css" id="current-color-scheme">
      .ColorScheme-Text {
        color:#4d4d4d
      }
      </style>
  </defs>
 <path 
     style="fill:currentColor;fill-opacity:1;stroke:none"      
	 class="ColorScheme-Text"
        d="M 3.2851562 3 C 2.8363828 3 2.4726562 3.3640808 2.4726562 3.8125 L 2.4726562 18.1875 C 2.4726562 18.63632 2.8366979 19 3.2851562 19 L 18.714844 19 C 19.163628 19 19.527344 18.635919 19.527344 18.1875 L 19.527344 3.8125 C 19.527344 3.3636801 19.163313 3 18.714844 3 L 3.2851562 3 z M 14 4.4003906 L 15.199219 4.4003906 L 15.199219 6.8007812 L 17.599609 6.8007812 L 17.599609 8 L 15.199219 8 L 15.199219 10.400391 L 14 10.400391 L 14 8 L 11.599609 8 L 11.599609 6.8007812 L 14 6.8007812 L 14 4.4003906 z M 8.4199219 9.6738281 C 8.5983649 9.6572321 8.7870068 9.748666 8.9433594 9.953125 L 12.158203 14.158203 C 12.470919 14.567154 13.019079 14.602647 13.380859 14.236328 L 14.166016 13.439453 C 14.527481 13.073047 15.060451 13.11731 15.355469 13.539062 L 17.392578 16.451172 C 17.686965 16.873499 17.508764 17.214844 16.994141 17.214844 L 11 17.214844 L 5.2714844 17.214844 C 4.7569149 17.214844 4.5277846 16.842442 4.7597656 16.382812 L 7.9570312 10.044922 C 8.0728588 9.8151072 8.2414789 9.6904241 8.4199219 9.6738281 z "
     />
</svg>

<svg viewBox="0 0 22 22" xmlns="http://www.w3.org/2000/svg">
<defs>
<style id="current-color-scheme" type="text/css">.ColorScheme-Text {
        color:#363636
      }</style>
</defs>
<path class="ColorScheme-Text" d="m3.2852 3c-0.44877 0-0.8125 0.36408-0.8125 0.8125v14.375c0 0.44882 0.36404 0.8125 0.8125 0.8125h15.43c0.44878 0 0.8125-0.36408 0.8125-0.8125v-14.375c0-0.44882-0.36403-0.8125-0.8125-0.8125h-15.43zm10.715 1.4004h1.1992v2.4004h2.4004v1.1992h-2.4004v2.4004h-1.1992v-2.4004h-2.4004v-1.1992h2.4004v-2.4004zm-5.5801 5.2734c0.17844-0.016596 0.36708 0.074838 0.52344 0.2793l3.2148 4.2051c0.31272 0.40895 0.86088 0.44444 1.2227 0.078125l0.78516-0.79688c0.36146-0.36641 0.89444-0.32214 1.1895 0.099609l2.0371 2.9121c0.29439 0.42233 0.11619 0.76367-0.39844 0.76367h-5.9941-5.7285c-0.51457 0-0.7437-0.3724-0.51172-0.83203l3.1973-6.3379c0.11583-0.22981 0.28445-0.3545 0.46289-0.37109z" fill="#363636"/>
</svg>
